flaticon/science/flask-1.svg

<svg xmlns="http://www.w3.org/2000/svg" width="32" height="32" viewBox="0 0 24 24">
    <path d="M10.011719 5.601562L11.613281 5.601562C11.851562 5.601562 12.011719 5.441406 12.011719 5.199219 12.011719 4.960938 11.851562 4.800781 11.613281 4.800781L10.011719 4.800781C9.773438 4.800781 9.613281 4.960938 9.613281 5.199219 9.613281 5.441406 9.773438 5.601562 10.011719 5.601562zM10.011719 7.199219L10.8125 7.199219C11.050781 7.199219 11.210938 7.039062 11.210938 6.800781 11.210938 6.558594 11.050781 6.398438 10.8125 6.398438L10.011719 6.398438C9.773438 6.398438 9.613281 6.558594 9.613281 6.800781 9.613281 7.039062 9.773438 7.199219 10.011719 7.199219zM10.011719 8.800781L11.613281 8.800781C11.851562 8.800781 12.011719 8.640625 12.011719 8.398438 12.011719 8.160156 11.851562 8 11.613281 8L10.011719 8C9.773438 8 9.613281 8.160156 9.613281 8.398438 9.613281 8.640625 9.773438 8.800781 10.011719 8.800781zM10.011719 10.398438L10.8125 10.398438C11.050781 10.398438 11.210938 10.238281 11.210938 10 11.210938 9.761719 11.050781 9.601562 10.8125 9.601562L10.011719 9.601562C9.773438 9.601562 9.613281 9.761719 9.613281 10 9.613281 10.238281 9.773438 10.398438 10.011719 10.398438zM10.011719 10.398438"/>
    <path d="M 19.332031 16.320312 L 16.011719 11.480469 L 16.011719 3.148438 C 16.699219 2.96875 17.210938 2.34375 17.210938 1.601562 C 17.210938 0.71875 16.492188 0 15.613281 0 L 8.414062 0 C 7.53125 0 6.8125 0.71875 6.8125 1.601562 C 6.8125 2.34375 7.324219 2.96875 8.011719 3.148438 L 8.011719 11.480469 L 5.386719 15.265625 C 5.382812 15.269531 5.375 15.273438 5.371094 15.28125 L 4.652344 16.320312 C 3.972656 17.359375 3.691406 18.558594 3.851562 19.800781 C 4.210938 22.199219 6.292969 24 8.734375 24 L 15.292969 24 C 16.207031 24 17.070312 23.746094 17.8125 23.304688 C 17.933594 23.230469 18.054688 23.152344 18.171875 23.066406 C 18.289062 22.984375 18.398438 22.894531 18.507812 22.800781 C 18.617188 22.707031 18.71875 22.609375 18.820312 22.503906 C 18.96875 22.351562 19.109375 22.1875 19.234375 22.011719 C 19.320312 21.898438 19.402344 21.777344 19.476562 21.65625 C 19.589844 21.472656 19.6875 21.277344 19.777344 21.078125 C 19.949219 20.679688 20.074219 20.25 20.132812 19.800781 C 20.332031 18.558594 20.011719 17.320312 19.332031 16.320312 Z M 19.339844 19.617188 C 19.335938 19.632812 19.335938 19.652344 19.335938 19.667969 C 19.332031 19.671875 19.332031 19.675781 19.332031 19.679688 C 19.050781 21.679688 17.332031 23.199219 15.292969 23.199219 L 8.691406 23.199219 C 6.691406 23.199219 4.933594 21.679688 4.652344 19.679688 C 4.625 19.488281 4.605469 19.296875 4.605469 19.105469 C 4.601562 18.277344 4.851562 17.472656 5.332031 16.800781 L 5.851562 16.039062 C 5.933594 16.121094 6.050781 16.199219 6.09375 16.320312 C 7.8125 18.039062 10.574219 19.398438 12.613281 17.558594 L 12.652344 17.519531 C 14.292969 16 16.613281 17.199219 18.132812 18.71875 C 18.488281 19.035156 18.921875 19.3125 19.355469 19.511719 C 19.351562 19.546875 19.34375 19.582031 19.339844 19.617188 Z M 7.613281 1.601562 C 7.613281 1.160156 7.972656 0.800781 8.414062 0.800781 L 15.613281 0.800781 C 16.050781 0.800781 16.414062 1.160156 16.414062 1.601562 C 16.414062 2.039062 16.050781 2.398438 15.613281 2.398438 L 8.414062 2.398438 C 7.972656 2.398438 7.613281 2.039062 7.613281 1.601562 Z M 8.734375 11.839844 C 8.773438 11.761719 8.8125 11.679688 8.8125 11.601562 L 8.8125 3.199219 L 15.210938 3.199219 L 15.210938 11.601562 C 15.210938 11.679688 15.253906 11.761719 15.253906 11.800781 L 18.652344 16.761719 C 19.03125 17.316406 19.265625 17.921875 19.347656 18.550781 C 19.113281 18.414062 18.894531 18.261719 18.691406 18.078125 C 16.972656 16.359375 14.210938 15 12.171875 16.839844 L 12.132812 16.878906 C 10.492188 18.398438 8.171875 17.199219 6.652344 15.679688 C 6.527344 15.597656 6.398438 15.5 6.269531 15.40625 Z M 8.734375 11.839844"/>
</svg>

<svg xmlns="http://www.w3.org/2000/svg" width="32" height="32" viewBox="0 0 24 24">
    <path d="M10.012 5.602h1.601c.239 0 .399-.16.399-.403 0-.238-.16-.398-.399-.398h-1.601c-.239 0-.399.16-.399.398 0 .242.16.403.399.403zm0 0M10.012 7.2h.8c.239 0 .399-.16.399-.4 0-.241-.16-.402-.399-.402h-.8c-.239 0-.399.16-.399.403 0 .238.16.398.399.398zm0 0M10.012 8.8h1.601c.239 0 .399-.16.399-.402 0-.238-.16-.398-.399-.398h-1.601c-.239 0-.399.16-.399.398 0 .243.16.403.399.403zm0 0M10.012 10.398h.8c.239 0 .399-.16.399-.398 0-.238-.16-.398-.399-.398h-.8c-.239 0-.399.16-.399.398 0 .238.16.398.399.398zm0 0"/>
    <path d="M19.332 16.32l-3.32-4.84V3.148c.687-.18 1.199-.804 1.199-1.546C17.21.719 16.492 0 15.613 0H8.414c-.883 0-1.601.719-1.601 1.602 0 .742.511 1.367 1.199 1.546v8.332l-2.625 3.786c-.004.004-.012.007-.016.015l-.719 1.04a5.083 5.083 0 0 0-.8 3.48A4.948 4.948 0 0 0 8.734 24h6.559a4.92 4.92 0 0 0 3.215-1.2c.11-.093.21-.19.312-.296.149-.152.29-.317.414-.492.086-.114.168-.235.243-.356a4.796 4.796 0 0 0 .656-1.855c.199-1.242-.121-2.48-.801-3.48zm.008 3.297c-.004.016-.004.035-.004.051-.004.004-.004.008-.004.012-.281 2-2 3.52-4.039 3.52H8.691c-2 0-3.757-1.52-4.039-3.52a3.92 3.92 0 0 1 .68-2.879l.52-.762c.082.082.199.16.242.281 1.718 1.72 4.48 3.078 6.52 1.239l.038-.04c1.641-1.519 3.961-.32 5.48 1.2.356.316.79.593 1.223.793-.003.035-.011.07-.015.105zM7.613 1.602c0-.442.36-.801.801-.801h7.2c.437 0 .8.36.8.8a.804.804 0 0 1-.8.797h-7.2c-.441 0-.8-.359-.8-.796zM8.734 11.84a.57.57 0 0 0 .079-.238V3.199h6.398v8.403c0 .078.043.16.043.199l3.398 4.96c.38.555.614 1.16.696 1.79a3.883 3.883 0 0 1-.657-.473c-1.718-1.719-4.48-3.078-6.52-1.238l-.038.039c-1.64 1.52-3.961.32-5.48-1.2-.126-.081-.255-.179-.383-.273zm0 0"/>
</svg>
